public/svg/usecases/slider/otc-exchange.svg

<svg width="32" height="32" viewBox="0 0 32 32" fill="none" xmlns="http://www.w3.org/2000/svg">
<g clip-path="url(#clip0_225_2887)">
<path d="M7.77696 4.29846V24.7982C7.77696 25.7406 7.73828 26.6934 7.77696 27.6358C7.77696 27.6503 7.77696 27.6626 7.77696 27.677C7.77696 27.8437 7.91743 27.9857 8.08233 27.9857H26.1602C26.9949 27.9857 27.8357 28.0207 28.6703 27.9857C28.6825 27.9857 28.6948 27.9857 28.707 27.9857C29.0999 27.9857 29.0999 27.3683 28.707 27.3683H8.92515C8.6666 27.3683 8.37752 27.3313 8.12101 27.3683C8.10879 27.3683 8.09658 27.3683 8.08436 27.3683L8.38973 27.677V7.17525C8.38973 6.23278 8.42841 5.28002 8.38973 4.33756C8.38973 4.32315 8.38973 4.3108 8.38973 4.2964C8.38973 3.89925 7.77899 3.89925 7.77899 4.2964L7.77696 4.29846Z" fill="#252B37"/>
<path d="M5.29468 6.82754H7.94936C8.34227 6.82754 8.34227 6.21021 7.94936 6.21021H5.29468C4.90177 6.21021 4.90177 6.82754 5.29468 6.82754Z" fill="#252B37"/>
<path d="M5.29468 11.6757H7.94936C8.34227 11.6757 8.34227 11.0583 7.94936 11.0583H5.29468C4.90177 11.0583 4.90177 11.6757 5.29468 11.6757Z" fill="#252B37"/>
<path d="M5.29468 16.5216H7.94936C8.34227 16.5216 8.34227 15.9043 7.94936 15.9043H5.29468C4.90177 15.9043 4.90177 16.5216 5.29468 16.5216Z" fill="#252B37"/>
<path d="M5.29468 21.3678H7.94936C8.34227 21.3678 8.34227 20.7505 7.94936 20.7505H5.29468C4.90177 20.7505 4.90177 21.3678 5.29468 21.3678Z" fill="#252B37"/>
<path d="M5.29468 26.216H7.94936C8.34227 26.216 8.34227 25.5986 7.94936 25.5986H5.29468C4.90177 25.5986 4.90177 26.216 5.29468 26.216Z" fill="#252B37"/>
<path d="M10.8281 15.6164V17.2132C10.8281 17.3737 10.9686 17.5301 11.1335 17.5219C11.2984 17.5136 11.4389 17.3861 11.4389 17.2132V15.6164C11.4389 15.4558 11.2984 15.2995 11.1335 15.3077C10.9686 15.3159 10.8281 15.4435 10.8281 15.6164Z" fill="#252B37"/>
<path d="M10.8281 24.683V26.2798C10.8281 26.4404 10.9686 26.5967 11.1335 26.5885C11.2984 26.5803 11.4389 26.4527 11.4389 26.2798V24.683C11.4389 24.5225 11.2984 24.3661 11.1335 24.3743C10.9686 24.3826 10.8281 24.5101 10.8281 24.683Z" fill="#252B37"/>
<path d="M11.8001 12.6985C11.6637 12.8693 11.5273 13.038 11.3909 13.2088L11.114 13.5545C11.0713 13.6101 11.0285 13.6739 10.9756 13.7212L11.1099 13.6409H11.2178L11.3522 13.7212C11.2993 13.6759 11.2586 13.6101 11.2138 13.5545L10.9369 13.2088C10.8005 13.038 10.6641 12.8693 10.5277 12.6985C10.4259 12.5729 10.1999 12.5853 10.0961 12.6985C9.97397 12.8322 9.98822 13.001 10.0961 13.1347C10.3424 13.4413 10.5867 13.7479 10.8331 14.0525C10.8982 14.1327 10.945 14.2006 11.055 14.2356C11.2117 14.285 11.3624 14.2192 11.4601 14.0957L11.8693 13.5854C11.9894 13.4351 12.1095 13.2849 12.2317 13.1347C12.3314 13.0092 12.362 12.8199 12.2317 12.6985C12.1197 12.5956 11.908 12.5647 11.8001 12.6985Z" fill="#252B37"/>
<path d="M11.4662 13.8899V11.3176C11.4662 10.9205 10.8555 10.9205 10.8555 11.3176V13.8899C10.8555 14.287 11.4662 14.287 11.4662 13.8899Z" fill="#252B37"/>
<path d="M17.4236 20.0219H15.0886L15.3939 20.3305V13.2476L15.0886 13.5563H17.4236L17.1183 13.2476V20.3305C17.1183 20.7277 17.729 20.7277 17.729 20.3305V13.2476C17.729 13.081 17.5885 12.939 17.4236 12.939H15.0886C14.9237 12.939 14.7832 13.081 14.7832 13.2476V20.3305C14.7832 20.4972 14.9237 20.6392 15.0886 20.6392H17.4236C17.8165 20.6392 17.8165 20.0219 17.4236 20.0219Z" fill="#252B37"/>
<path d="M15.9531 11.4491V13.046C15.9531 13.2065 16.0936 13.3629 16.2585 13.3546C16.4234 13.3464 16.5639 13.2188 16.5639 13.046V11.4491C16.5639 11.2886 16.4234 11.1322 16.2585 11.1404C16.0936 11.1487 15.9531 11.2763 15.9531 11.4491Z" fill="#252B37"/>
<path d="M15.9531 20.5138V22.1107C15.9531 22.2712 16.0936 22.4276 16.2585 22.4193C16.4234 22.4111 16.5639 22.2835 16.5639 22.1107V20.5138C16.5639 20.3533 16.4234 20.1969 16.2585 20.2051C16.0936 20.2134 15.9531 20.341 15.9531 20.5138Z" fill="#252B37"/>
<path d="M17.3609 7.95921C17.1145 7.6526 16.8702 7.34599 16.6239 7.04143C16.5588 6.96118 16.5119 6.89327 16.402 6.85829C16.2452 6.8089 16.0946 6.87475 15.9969 6.99822L15.5877 7.50855C15.4676 7.65877 15.3475 7.80899 15.2253 7.95921C15.1256 8.08473 15.095 8.27405 15.2253 8.39546C15.3373 8.49835 15.549 8.52921 15.6569 8.39546C15.7933 8.22466 15.9297 8.05592 16.0661 7.88513L16.343 7.53942C16.3857 7.48386 16.4285 7.42007 16.4814 7.37274L16.347 7.45299H16.2391L16.1048 7.37274C16.1577 7.41801 16.1984 7.48386 16.2432 7.53942L16.5201 7.88513C16.6565 8.05592 16.7929 8.22466 16.9293 8.39546C17.0311 8.52098 17.257 8.50864 17.3609 8.39546C17.483 8.2617 17.4688 8.09296 17.3609 7.95921Z" fill="#252B37"/>
<path d="M15.9844 7.20412V9.77635C15.9844 10.1735 16.5951 10.1735 16.5951 9.77635V7.20412C16.5951 6.80696 15.9844 6.80696 15.9844 7.20412Z" fill="#252B37"/>
<path d="M22.5506 21.6147H20.2155L20.5209 21.9233V14.8404L20.2155 15.1491H22.5506L22.2452 14.8404V21.9233C22.2452 22.3205 22.856 22.3205 22.856 21.9233V14.8404C22.856 14.6737 22.7155 14.5317 22.5506 14.5317H20.2155C20.0506 14.5317 19.9102 14.6737 19.9102 14.8404V21.9233C19.9102 22.09 20.0506 22.232 20.2155 22.232H22.5506C22.9435 22.232 22.9435 21.6147 22.5506 21.6147Z" fill="#252B37"/>
<path d="M21.0801 13.0421V14.639C21.0801 14.7995 21.2205 14.9559 21.3854 14.9476C21.5503 14.9394 21.6908 14.8118 21.6908 14.639V13.0421C21.6908 12.8816 21.5503 12.7252 21.3854 12.7335C21.2205 12.7417 21.0801 12.8693 21.0801 13.0421Z" fill="#252B37"/>
<path d="M21.0801 22.1085V23.7054C21.0801 23.8659 21.2205 24.0223 21.3854 24.0141C21.5503 24.0058 21.6908 23.8782 21.6908 23.7054V22.1085C21.6908 21.948 21.5503 21.7916 21.3854 21.7999C21.2205 21.8081 21.0801 21.9357 21.0801 22.1085Z" fill="#252B37"/>
<path d="M22.0559 10.1242C21.9195 10.295 21.7831 10.4638 21.6467 10.6346L21.3699 10.9803C21.3271 11.0358 21.2844 11.0996 21.2314 11.147L21.3658 11.0667H21.4737L21.6081 11.147C21.5551 11.1017 21.5144 11.0358 21.4696 10.9803L21.1928 10.6346C21.0564 10.4638 20.92 10.295 20.7836 10.1242C20.6818 9.99872 20.4558 10.0111 20.352 10.1242C20.2298 10.258 20.2441 10.4267 20.352 10.5605C20.5983 10.8671 20.8426 11.1737 21.0889 11.4783C21.1541 11.5585 21.2009 11.6264 21.3108 11.6614C21.4676 11.7108 21.6182 11.6449 21.716 11.5215L22.1252 11.0111C22.2453 10.8609 22.3654 10.7107 22.4875 10.5605C22.5873 10.435 22.6178 10.2457 22.4875 10.1242C22.3756 10.0214 22.1638 9.99049 22.0559 10.1242Z" fill="#252B37"/>
<path d="M21.7221 11.3154V8.74318C21.7221 8.34602 21.1113 8.34602 21.1113 8.74318V11.3154C21.1113 11.7126 21.7221 11.7126 21.7221 11.3154Z" fill="#252B37"/>
<path d="M26.209 9.14882V10.7457C26.209 10.9062 26.3495 11.0626 26.5144 11.0543C26.6793 11.0461 26.8197 10.9185 26.8197 10.7457V9.14882C26.8197 8.98832 26.6793 8.83192 26.5144 8.84015C26.3495 8.84839 26.209 8.97597 26.209 9.14882Z" fill="#252B37"/>
<path d="M26.209 18.2152V19.8121C26.209 19.9726 26.3495 20.129 26.5144 20.1207C26.6793 20.1125 26.8197 19.9849 26.8197 19.8121V18.2152C26.8197 18.0547 26.6793 17.8983 26.5144 17.9066C26.3495 17.9148 26.209 18.0424 26.209 18.2152Z" fill="#252B37"/>
<path d="M27.1809 6.23069C27.0445 6.40148 26.9081 6.57022 26.7717 6.74102L26.4949 7.08673C26.4521 7.14229 26.4094 7.20608 26.3564 7.25341L26.4908 7.17315H26.5987L26.7331 7.25341C26.6801 7.20814 26.6394 7.14229 26.5946 7.08673L26.3178 6.74102C26.1814 6.57022 26.045 6.40148 25.9086 6.23069C25.8068 6.10516 25.5808 6.11751 25.477 6.23069C25.3548 6.36444 25.3691 6.53318 25.477 6.66694C25.7233 6.97355 25.9676 7.28016 26.2139 7.58471C26.2791 7.66497 26.3259 7.73287 26.4358 7.76786C26.5926 7.81724 26.7432 7.75139 26.841 7.62793L27.2502 7.11759C27.3703 6.96738 27.4904 6.81716 27.6125 6.66694C27.7123 6.54141 27.7428 6.3521 27.6125 6.23069C27.5006 6.1278 27.2888 6.09693 27.1809 6.23069Z" fill="#252B37"/>
<path d="M26.8471 7.42235V4.85011C26.8471 4.45296 26.2363 4.45296 26.2363 4.85011V7.42235C26.2363 7.8195 26.8471 7.8195 26.8471 7.42235Z" fill="#252B37"/>
<path d="M27.1781 10.9473H25.8406C25.5651 10.9473 25.3418 11.173 25.3418 11.4514V17.526C25.3418 17.8045 25.5651 18.0302 25.8406 18.0302H27.1781C27.4535 18.0302 27.6769 17.8045 27.6769 17.526V11.4514C27.6769 11.173 27.4535 10.9473 27.1781 10.9473Z" fill="#3B82F6"/>
<path d="M11.7443 17.4148H10.5126C10.2079 17.4148 9.96094 17.6645 9.96094 17.9725V23.94C9.96094 24.248 10.2079 24.4977 10.5126 24.4977H11.7443C12.049 24.4977 12.296 24.248 12.296 23.94V17.9725C12.296 17.6645 12.049 17.4148 11.7443 17.4148Z" fill="#4389FA"/>
</g>
<defs>
<clipPath id="clip0_225_2887">
<rect width="24" height="24" fill="white" transform="translate(5 4)"/>
</clipPath>
</defs>
</svg>

<svg xmlns="http://www.w3.org/2000/svg" width="32" height="32" fill="none" viewBox="0 0 32 32"><g clip-path="url(#a)"><path fill="#252b37" d="M7.777 4.298v20.5c0 .943-.039 1.895 0 2.838v.041c0 .167.14.309.305.309H26.16c.835 0 1.676.035 2.51 0h.037c.393 0 .393-.618 0-.618H8.925c-.258 0-.547-.037-.804 0h-.037l.306.309V7.175c0-.942.038-1.895 0-2.837v-.042c0-.397-.611-.397-.611 0z"/><path fill="#252b37" d="M5.295 6.828h2.654c.393 0 .393-.618 0-.618H5.295c-.393 0-.393.618 0 .618m0 4.848h2.654c.393 0 .393-.618 0-.618H5.295c-.393 0-.393.618 0 .618m0 4.846h2.654c.393 0 .393-.618 0-.618H5.295c-.393 0-.393.618 0 .618m0 4.846h2.654c.393 0 .393-.617 0-.617H5.295c-.393 0-.393.617 0 .617m0 4.848h2.654c.393 0 .393-.617 0-.617H5.295c-.393 0-.393.617 0 .617m5.533-10.6v1.597c0 .16.14.317.306.309a.313.313 0 0 0 .305-.309v-1.597c0-.16-.14-.316-.306-.308a.313.313 0 0 0-.305.308m0 9.067v1.597c0 .16.14.317.306.308a.313.313 0 0 0 .305-.308v-1.597c0-.16-.14-.317-.306-.309a.313.313 0 0 0-.305.309m.972-11.984-.41.51-.276.346c-.043.055-.086.119-.138.166l.134-.08h.108l.134.08c-.053-.045-.093-.11-.138-.166l-.277-.346q-.204-.256-.41-.51c-.101-.126-.327-.114-.43 0-.123.133-.109.302 0 .436q.367.46.736.918c.065.08.112.148.222.183.157.049.307-.017.405-.14l.41-.51q.18-.226.362-.451c.1-.126.13-.315 0-.437-.112-.102-.324-.133-.432 0"/><path fill="#252b37" d="M11.466 13.89v-2.572c0-.397-.61-.397-.61 0v2.572c0 .397.61.397.61 0m5.958 6.132h-2.335l.305.309v-7.083l-.305.308h2.335l-.306-.308v7.083c0 .397.611.397.611 0v-7.083a.31.31 0 0 0-.305-.309h-2.335a.31.31 0 0 0-.306.309v7.083c0 .166.14.308.306.308h2.335c.393 0 .393-.617 0-.617"/><path fill="#252b37" d="M15.953 11.45v1.596c0 .16.14.317.306.309a.313.313 0 0 0 .305-.309v-1.597c0-.16-.14-.317-.305-.309a.314.314 0 0 0-.306.31m0 9.064v1.597c0 .16.14.317.306.308a.313.313 0 0 0 .305-.308v-1.597c0-.16-.14-.317-.305-.309a.314.314 0 0 0-.306.309M17.36 7.96q-.367-.461-.736-.919c-.065-.08-.112-.148-.222-.183-.157-.05-.307.017-.405.14l-.41.51q-.18.226-.362.451c-.1.126-.13.315 0 .436.112.103.324.134.432 0l.41-.51.276-.346c.043-.055.085-.119.138-.166l-.134.08h-.108l-.134-.08c.053.045.093.11.138.166l.277.346.41.51c.101.126.327.114.43 0 .123-.133.109-.302 0-.436"/><path fill="#252b37" d="M15.984 7.204v2.572c0 .398.611.398.611 0V7.204c0-.397-.61-.397-.61 0m6.565 14.411h-2.335l.306.308V14.84l-.306.31h2.336l-.306-.31v7.083c0 .398.611.398.611 0V14.84a.31.31 0 0 0-.305-.308h-2.335a.31.31 0 0 0-.306.308v7.083c0 .167.14.309.305.309h2.336c.393 0 .393-.617 0-.617"/><path fill="#252b37" d="M21.08 13.042v1.597c0 .16.14.317.305.309a.313.313 0 0 0 .306-.309v-1.597c0-.16-.14-.317-.306-.309a.313.313 0 0 0-.305.31m0 9.066v1.596c0 .16.14.317.305.31a.314.314 0 0 0 .306-.31V22.11c0-.161-.14-.317-.306-.31a.313.313 0 0 0-.305.31m.976-11.986-.41.51-.276.346c-.043.056-.086.12-.139.167l.135-.08h.108l.134.08c-.053-.045-.094-.111-.138-.167l-.277-.345-.41-.51c-.101-.126-.327-.114-.431 0-.122.133-.108.302 0 .435q.368.461.737.918c.065.08.112.148.222.183.157.05.307-.016.405-.14l.41-.51.361-.45c.1-.126.13-.315 0-.437-.111-.103-.323-.134-.431 0"/><path fill="#252b37" d="M21.722 11.315V8.743c0-.397-.61-.397-.61 0v2.572c0 .398.61.398.61 0m4.487-2.166v1.597c0 .16.14.317.305.308a.313.313 0 0 0 .306-.308V9.149c0-.16-.14-.317-.306-.309a.313.313 0 0 0-.305.309m0 9.066v1.597c0 .16.14.317.305.309a.313.313 0 0 0 .306-.309v-1.597c0-.16-.14-.317-.306-.308a.313.313 0 0 0-.305.308M27.18 6.23l-.408.511-.277.346c-.043.055-.086.12-.139.166l.135-.08h.108l.134.08c-.053-.045-.094-.11-.138-.166l-.277-.346-.41-.51c-.101-.126-.327-.113-.431 0-.122.133-.108.302 0 .436q.368.46.737.918c.065.08.112.148.222.183.157.05.307-.017.405-.14l.41-.51.361-.451c.1-.126.13-.315 0-.436-.111-.103-.323-.134-.431 0"/><path fill="#252b37" d="M26.847 7.422V4.85c0-.397-.61-.397-.61 0v2.572c0 .397.61.397.61 0"/><path fill="#3b82f6" d="M27.178 10.947h-1.337a.5.5 0 0 0-.5.504v6.075c0 .279.224.504.5.504h1.337a.5.5 0 0 0 .499-.504v-6.075a.5.5 0 0 0-.499-.504"/><path fill="#4389fa" d="M11.744 17.415h-1.231a.555.555 0 0 0-.552.558v5.967c0 .308.247.558.552.558h1.231c.305 0 .552-.25.552-.558v-5.968a.555.555 0 0 0-.552-.557"/></g><defs><clipPath id="a"><path fill="#fff" d="M5 4h24v24H5z"/></clipPath></defs></svg>
